X:211
T:Sailor's Wife, The
S:Rosa's Session, 30/12/00
Z:Nigel Gatherer
R:jig
M:6/8
L:1/8
K:Em
EFG F2 E|e2 f g2 a|bag fed|BdB AFD|EFG F2 E|
e2 f g2 a|bag fe^d|e3 e3::gab gab|gab bga|fda fda|
fda agf|gab bag|fga agf|efg fe^d|e3 e3:|
